lib/logo_tmp/nrk-logo-nrk-radio-title-below-on-light.svg

<svg width="44" height="41" viewBox="0 0 44 41" fill="none" xmlns="http://www.w3.org/2000/svg">
<path d="M0 17.9968V5.99792H3.93719V17.9968H0ZM9.29381 7.90761L11.5581 17.9968H7.24917L4.54549 5.99792H6.96218C7.51635 5.99072 8.05406 6.18607 8.4745 6.54722C8.89562 6.89321 9.18495 7.37352 9.29381 7.90761ZM12.1495 17.9968V5.99792H16.0867V17.9968H12.1495ZM19.0605 10.5609C18.6362 10.5651 18.2188 10.4541 17.8525 10.2398C17.4912 10.0309 17.1911 9.73079 16.9823 9.36942C16.7678 9.00316 16.6568 8.58559 16.661 8.16114C16.6561 7.73929 16.7672 7.32421 16.9823 6.96125C17.1933 6.60382 17.4931 6.30692 17.8525 6.09935C18.2189 5.88533 18.6362 5.77434 19.0605 5.77821C19.4822 5.77367 19.8971 5.88475 20.2602 6.09935C20.616 6.30874 20.9127 6.60539 21.122 6.96125C21.3368 7.32431 21.4479 7.73932 21.4433 8.16114C21.4473 8.58555 21.3363 9.00305 21.122 9.36942C20.9149 9.7292 20.6179 10.0291 20.2602 10.2398C19.8971 10.4548 19.4819 10.5659 19.0599 10.5609H19.0605ZM22.0516 17.9968V5.99792H25.9892V17.9968H22.0516ZM30.9737 12.5551C30.9848 12.5667 31.0693 12.7047 31.2272 12.9691C31.3851 13.2335 31.5907 13.5715 31.8439 13.9831C32.0974 14.3945 32.3649 14.8311 32.6463 15.2928C32.9278 15.7546 33.1926 16.1912 33.4408 16.6026C33.6881 17.014 33.9697 17.4788 34.2857 17.9968H29.9598C29.6893 17.5574 29.4441 17.1603 29.2245 16.8054C29.0048 16.4505 28.7713 16.0674 28.5238 15.6562C28.2758 15.2453 28.0306 14.8454 27.7882 14.4563C27.5458 14.0672 27.3375 13.7264 27.1633 13.4339C26.9883 13.1411 26.8671 12.9439 26.7997 12.8424C26.6325 12.5903 26.5336 12.2991 26.5127 11.9974C26.5294 11.7078 26.6226 11.4278 26.7828 11.1859C26.8504 11.0733 26.9743 10.8733 27.1545 10.586C27.3348 10.2987 27.546 9.95788 27.7882 9.56355C28.0304 9.16922 28.2756 8.76643 28.5238 8.3552C28.772 7.94397 29.0056 7.55806 29.2245 7.19753C29.4445 6.83738 29.6897 6.43741 29.9598 5.99764H34.2857L30.9396 11.4563C30.8361 11.6184 30.7777 11.8052 30.7706 11.9974C30.7818 12.1991 30.8522 12.3931 30.9731 12.5551H30.9737Z" fill="#0A2343"/>
<path d="M5.88318 30.0512C6.10798 30.0168 6.32984 29.965 6.54663 29.8963C6.98597 29.7597 7.39172 29.5323 7.73769 29.229C8.0823 28.9213 8.35357 28.5403 8.53168 28.114C8.7319 27.6237 8.82965 27.0976 8.8189 26.5682C8.82645 25.9505 8.69665 25.3389 8.43881 24.7776C8.17242 24.2231 7.73382 23.7697 7.18856 23.4849C6.46104 23.1316 5.65666 22.966 4.84872 23.0034H0V34.9985H1.75703V30.4032H4.3416L7.33217 34.9985H9.39305L6.58857 30.8427L5.88318 30.0512ZM5.91309 24.7013C6.26297 24.8347 6.55554 25.0856 6.74063 25.4111C6.93415 25.7894 7.02722 26.2111 7.01093 26.6357C7.03199 27.1057 6.91777 27.5719 6.68178 27.9789C6.45837 28.3254 6.12524 28.5871 5.73566 28.7222C5.26578 28.8837 4.77106 28.961 4.2743 28.9503H1.75703V24.4732H4.47675C4.96569 24.4569 5.45324 24.5343 5.91309 24.7013Z" fill="#1767CE"/>
<path d="M18.4992 33.9344C18.3757 33.9457 18.2513 33.9271 18.1365 33.88C18.0218 33.8329 17.9202 33.7587 17.8403 33.6638C17.6836 33.3931 17.6185 33.0791 17.6545 32.7684L17.6883 29.2884C17.692 28.9235 17.6465 28.5597 17.5531 28.2069C17.4709 27.8976 17.3336 27.6057 17.1477 27.3453C16.9596 27.0907 16.7209 26.8779 16.4465 26.7202C16.1277 26.5392 15.783 26.4082 15.4244 26.3319C14.9859 26.2371 14.5383 26.1918 14.0897 26.1967C13.7339 26.1965 13.3783 26.219 13.0253 26.264C12.6918 26.306 12.3616 26.3709 12.037 26.4583C11.736 26.5401 11.4399 26.6389 11.1501 26.7542L10.9474 28.1903C11.2289 28.0889 11.4965 28.0044 11.7501 27.9368C12.0038 27.8693 12.2486 27.813 12.4847 27.7679C12.7165 27.7236 12.9506 27.6926 13.1859 27.6753C13.4166 27.658 13.6446 27.6494 13.8701 27.6496C14.2146 27.6424 14.5585 27.6822 14.8922 27.7679C15.1357 27.8289 15.3596 27.951 15.5427 28.1227C15.7056 28.2898 15.8221 28.4965 15.8806 28.7224C15.9526 29.0011 15.9867 29.2882 15.9819 29.5759L15.98 29.9997L14.0052 30.1334C13.3298 30.1523 12.6644 30.3014 12.0455 30.5724C11.5824 30.7751 11.1826 31.0991 10.8882 31.5101C10.6385 31.8759 10.5059 32.3089 10.5081 32.7518C10.5049 33.1674 10.6066 33.577 10.8037 33.9429C11.0104 34.3188 11.3213 34.6268 11.6991 34.8298C12.16 35.0696 12.6751 35.186 13.1943 35.1677C13.6808 35.1789 14.1651 35.0987 14.6219 34.9312C15.017 34.7767 15.3784 34.5472 15.6863 34.2554C15.8031 34.1433 15.914 34.0251 16.0185 33.9015C16.0514 34.0764 16.1133 34.2445 16.2015 34.3991C16.352 34.6578 16.5836 34.8596 16.8604 34.9734C17.1664 35.0963 17.4938 35.1567 17.8234 35.1508C17.9248 35.1508 18.0233 35.148 18.1191 35.1424C18.2131 35.137 18.3064 35.1229 18.3978 35.1002C18.4879 35.0776 18.5693 35.0579 18.6428 35.041C18.709 35.0262 18.7739 35.0065 18.8371 34.9819L19.0229 33.8499C18.9297 33.882 18.8335 33.9046 18.7357 33.9175C18.6573 33.9281 18.5783 33.9337 18.4992 33.9344ZM15.6863 33.1742C15.5032 33.319 15.3049 33.4436 15.095 33.5459C14.886 33.6476 14.6645 33.7215 14.4363 33.7655C14.1996 33.8113 13.9591 33.8339 13.7181 33.8331C13.4427 33.8409 13.1689 33.789 12.9156 33.681C12.7094 33.5916 12.5355 33.4413 12.4172 33.2502C12.3002 33.0477 12.2416 32.8166 12.2482 32.5828C12.2319 32.3012 12.3091 32.0221 12.4678 31.7888C12.6519 31.5743 12.9011 31.426 13.1774 31.3665C13.6091 31.2649 14.0522 31.2195 14.4955 31.2313H15.9746L15.967 32.9083C15.8811 33.0047 15.7873 33.0938 15.6863 33.1742Z" fill="#1767CE"/>
<path d="M26.4911 26.6067C26.4739 26.5999 26.4579 26.5917 26.4404 26.585C26.1247 26.4661 25.7998 26.3728 25.469 26.3062C25.0823 26.2301 24.689 26.1934 24.2949 26.1967C23.5567 26.1922 22.8307 26.3846 22.1918 26.7542C21.5322 27.1378 20.9913 27.6961 20.629 28.3676C20.2132 29.161 20.0094 30.0485 20.0377 30.9438C20.0183 31.7168 20.1713 32.4843 20.4854 33.1908C20.7596 33.7942 21.2065 34.3028 21.7697 34.6522C22.3752 35.0086 23.069 35.1872 23.7714 35.1675C24.2023 35.1701 24.6315 35.1132 25.0469 34.9985C25.4609 34.8797 25.8561 34.7034 26.2211 34.4747C26.3475 34.3967 26.4745 34.3092 26.6007 34.2177L26.8127 34.9985H28.2147V22.26L26.4914 22.4966L26.4911 26.6067ZM25.5873 33.554C25.2021 33.7058 24.7932 33.7888 24.3793 33.7992C23.8965 33.8133 23.4186 33.6996 22.994 33.4695C22.5989 33.236 22.2905 32.8801 22.1155 32.4558C21.8963 31.9114 21.7927 31.3273 21.8114 30.7408C21.7916 30.1399 21.9071 29.5424 22.1492 28.9922C22.3556 28.5457 22.6949 28.174 23.1207 27.9278C23.584 27.6756 24.1057 27.5503 24.633 27.5646C24.9043 27.564 25.1753 27.5838 25.4437 27.6238C25.71 27.665 25.9727 27.7272 26.2293 27.8099C26.3118 27.836 26.4027 27.871 26.4911 27.9031V33.1099C26.2037 33.2852 25.9009 33.4338 25.5864 33.554H25.5873Z" fill="#1767CE"/>
<path d="M30.8491 34.9985H32.5724V26.2133L30.8491 26.4667V34.9985Z" fill="#1767CE"/>
<path d="M32.3274 22.6739C32.152 22.5667 31.95 22.5111 31.7445 22.5134C31.5364 22.5118 31.3319 22.5673 31.1532 22.6739C30.977 22.7771 30.829 22.9222 30.7224 23.0963C30.6153 23.2717 30.5596 23.4737 30.5619 23.6792C30.5602 23.8872 30.6157 24.0917 30.7224 24.2704C30.8256 24.4473 30.9744 24.5931 31.1532 24.6928C31.3336 24.7943 31.5375 24.8467 31.7445 24.8449C31.9489 24.8474 32.1502 24.7948 32.3274 24.6928C32.5012 24.5924 32.6444 24.4463 32.7413 24.2704C32.8428 24.09 32.8953 23.8862 32.8933 23.6792C32.8958 23.4748 32.8433 23.2734 32.7413 23.0963C32.6409 22.923 32.4986 22.7778 32.3274 22.6739Z" fill="#1767CE"/>
<path d="M42.8439 28.2661C42.5073 27.6202 41.9872 27.0882 41.349 26.7371C40.6451 26.3632 39.8567 26.1771 39.0598 26.1967C38.2556 26.1783 37.4604 26.3705 36.7534 26.7542C36.1008 27.1195 35.5671 27.6648 35.216 28.3252C34.8348 29.0662 34.646 29.8912 34.667 30.7242C34.6454 31.5508 34.8221 32.3705 35.1823 33.1148C35.5059 33.7646 36.0221 34.2986 36.6605 34.644C37.3478 35.0039 38.115 35.1841 38.8906 35.1675C39.7026 35.1836 40.5052 34.9917 41.2221 34.6099C41.8915 34.2449 42.4404 33.6932 42.8019 33.0218C43.1942 32.2722 43.389 31.4349 43.3679 30.5891C43.3871 29.7834 43.2071 28.9855 42.8439 28.2661ZM41.2474 32.3968C41.0577 32.8358 40.736 33.2049 40.3269 33.4527C39.9159 33.688 39.4489 33.8077 38.9754 33.7993C38.511 33.8108 38.0532 33.6875 37.6575 33.4442C37.2661 33.184 36.9604 32.8138 36.7791 32.3801C36.5492 31.8236 36.4399 31.2247 36.4584 30.6228C36.4384 30.0374 36.5478 29.4547 36.7791 28.9165C36.9686 28.4935 37.2843 28.1394 37.6829 27.9028C38.1092 27.6682 38.5903 27.5516 39.0767 27.5649C39.4564 27.5555 39.8338 27.6275 40.1833 27.7761C40.4895 27.9143 40.7566 28.1261 40.9608 28.3928C41.1784 28.6827 41.3362 29.013 41.4251 29.3645C41.5307 29.7754 41.5819 30.1985 41.5771 30.6228C41.5968 31.231 41.4843 31.8363 41.2474 32.3968Z" fill="#1767CE"/>
</svg>

<svg xmlns="http://www.w3.org/2000/svg" viewBox="0 0 44 41"><path fill="#0A2343" d="M0 17.997v-12h3.937v12H0Zm9.294-10.09 2.264 10.09H7.25l-2.704-12h2.417a2.276 2.276 0 0 1 1.513.55c.42.346.71.827.819 1.36Zm2.855 10.09v-12h3.938v12h-3.938Zm6.912-7.436a2.382 2.382 0 0 1-2.4-2.4 2.301 2.301 0 0 1 .321-1.2A2.41 2.41 0 0 1 20.26 6.1c.356.21.653.506.862.862.215.363.326.778.321 1.2a2.35 2.35 0 0 1-.321 1.208 2.4 2.4 0 0 1-.862.87 2.302 2.302 0 0 1-1.2.322Zm2.99 7.436v-12h3.938v12h-3.937Zm8.923-5.442c.01.012.095.15.253.414s.364.603.617 1.014a315.936 315.936 0 0 1 1.597 2.62c.247.411.529.876.845 1.394H29.96c-.27-.44-.516-.837-.736-1.192-.22-.354-.453-.738-.7-1.149-.248-.41-.493-.81-.736-1.2-.242-.389-.45-.73-.625-1.022-.175-.293-.296-.49-.363-.592a1.747 1.747 0 0 1-.287-.845c.016-.29.11-.57.27-.811.067-.113.191-.313.371-.6s.392-.628.634-1.022c.242-.395.488-.798.736-1.209l.7-1.157.736-1.2h4.326l-3.346 5.458a1.08 1.08 0 0 0-.17.541c.012.202.082.396.203.558Z"/><path fill="#1767CE" d="M5.883 30.051a4.4 4.4 0 0 0 .664-.155c.439-.136.845-.364 1.19-.667.345-.308.617-.689.795-1.115.2-.49.298-1.016.287-1.546a4.167 4.167 0 0 0-.38-1.79 2.852 2.852 0 0 0-1.25-1.293 4.844 4.844 0 0 0-2.34-.482H0v11.995h1.757v-4.595h2.585L7.332 35h2.061L6.59 30.843l-.706-.792Zm.03-5.35c.35.134.643.385.828.71.193.378.286.8.27 1.225.021.47-.093.936-.33 1.343a1.845 1.845 0 0 1-.945.743c-.47.162-.965.239-1.462.228H1.757v-4.477h2.72c.489-.016.976.061 1.436.228ZM18.5 33.934a.77.77 0 0 1-.66-.27 1.453 1.453 0 0 1-.186-.896l.034-3.48a4.065 4.065 0 0 0-.135-1.081 2.658 2.658 0 0 0-.405-.862 2.291 2.291 0 0 0-.701-.625 3.579 3.579 0 0 0-1.023-.388 6.005 6.005 0 0 0-1.334-.135 8.38 8.38 0 0 0-1.065.067 7.318 7.318 0 0 0-.988.194c-.301.082-.597.18-.887.296l-.203 1.436a9.906 9.906 0 0 1 1.538-.422 6.13 6.13 0 0 1 .7-.093 9.04 9.04 0 0 1 .685-.025 3.79 3.79 0 0 1 1.022.118c.244.06.468.183.65.355.164.167.28.373.339.6.072.278.106.565.1.853L15.98 30l-1.975.133a5.252 5.252 0 0 0-1.96.44 2.81 2.81 0 0 0-1.157.937c-.25.366-.382.799-.38 1.242-.003.415.099.825.296 1.19.206.377.517.685.895.888.461.24.976.356 1.495.338.487.01.971-.07 1.428-.237a3.288 3.288 0 0 0 1.064-.676c.117-.112.228-.23.332-.354.033.175.095.343.183.498.151.259.383.46.66.574.305.123.633.184.962.178.102 0 .2-.003.296-.009.094-.005.187-.02.279-.042l.245-.059c.066-.015.13-.034.194-.06l.186-1.131c-.093.032-.19.055-.287.067a1.89 1.89 0 0 1-.237.017Zm-2.814-.76c-.183.145-.381.27-.591.372-.209.102-.43.175-.659.22a3.715 3.715 0 0 1-.718.067 1.908 1.908 0 0 1-.802-.152c-.207-.09-.38-.24-.499-.43a1.263 1.263 0 0 1-.169-.668 1.28 1.28 0 0 1 .22-.794c.184-.215.433-.363.71-.423a5.155 5.155 0 0 1 1.317-.135h1.48l-.008 1.677a2.27 2.27 0 0 1-.28.266ZM26.491 26.607l-.05-.022a5.827 5.827 0 0 0-2.146-.388 4.15 4.15 0 0 0-2.103.557c-.66.384-1.2.942-1.563 1.614a5.197 5.197 0 0 0-.591 2.576 5.21 5.21 0 0 0 .447 2.247 3.351 3.351 0 0 0 1.285 1.461 3.74 3.74 0 0 0 2.001.515c.431.003.86-.054 1.276-.169.414-.118.81-.295 1.174-.523.127-.078.253-.166.38-.257l.212.78h1.402V22.26l-1.724.237v4.11Zm-.904 6.947a3.537 3.537 0 0 1-1.208.245 2.74 2.74 0 0 1-1.385-.33 2.114 2.114 0 0 1-.878-1.013 4.23 4.23 0 0 1-.305-1.715c-.02-.601.096-1.199.338-1.749.207-.446.546-.818.972-1.064a2.993 2.993 0 0 1 1.512-.363 5.106 5.106 0 0 1 1.596.245c.083.026.174.061.262.093v5.207c-.287.175-.59.324-.905.444h.001ZM30.85 34.998h1.722v-8.785l-1.723.254v8.532ZM32.327 22.674a1.094 1.094 0 0 0-.582-.16 1.137 1.137 0 0 0-.592.16 1.24 1.24 0 0 0-.43.422 1.095 1.095 0 0 0-.161.583c-.002.208.054.413.16.591.104.177.252.323.431.423.18.101.385.154.591.152.205.002.406-.05.583-.152.174-.1.317-.247.414-.423.102-.18.154-.384.152-.59a1.14 1.14 0 0 0-.152-.584 1.194 1.194 0 0 0-.414-.422ZM42.844 28.266a3.693 3.693 0 0 0-1.495-1.529 4.637 4.637 0 0 0-2.29-.54 4.614 4.614 0 0 0-2.306.557 3.897 3.897 0 0 0-1.537 1.571 4.97 4.97 0 0 0-.549 2.4 5.177 5.177 0 0 0 .515 2.39c.324.65.84 1.184 1.478 1.529.688.36 1.455.54 2.23.523a4.76 4.76 0 0 0 2.332-.557 3.932 3.932 0 0 0 1.58-1.588c.392-.75.587-1.587.566-2.433a4.895 4.895 0 0 0-.524-2.323Zm-1.597 4.13c-.19.44-.511.809-.92 1.057a2.626 2.626 0 0 1-1.352.346 2.403 2.403 0 0 1-1.318-.355 2.38 2.38 0 0 1-.878-1.064 4.26 4.26 0 0 1-.32-1.757c-.02-.586.089-1.168.32-1.707.19-.422.505-.777.904-1.013a2.736 2.736 0 0 1 1.394-.338c.38-.01.757.063 1.106.211.306.138.574.35.778.617.217.29.375.62.464.971.106.411.157.834.152 1.259a4.207 4.207 0 0 1-.33 1.774Z"/></svg>
